;FLAVOR:Marlin
;TIME:23956
;Filament used: 25.4955m
;Layer height: 0.28
;MINX:61.181
;MINY:31.669
;MINZ:0.28
;MAXX:228.181
;MAXY:225.5
;MAXZ:8.12
;TARGET_MACHINE.NAME:Creality Ender-3
;Generated with Cura_SteamEngine 5.7.1
M140 S69
M105
M190 S69
M104 S200
M105
M109 S200
M82 ;absolute extrusion mode
; Ender 3 Custom Start G-code
G92 E0 ; Reset Extruder
G28 ; Home all axes
G1 Z2.0 F3000 ; Move Z Axis up little to prevent scratching of Heat Bed
G1 X0.1 Y20 Z0.3 F5000.0 ; Move to start position
G1 X0.1 Y200.0 Z0.3 F1500.0 E15 ; Draw the first line
G1 X0.4 Y200.0 Z0.3 F5000.0 ; Move to side a little
G1 X0.4 Y20 Z0.3 F1500.0 E30 ; Draw the second line
G92 E0 ; Reset Extruder
G1 Z2.0 F3000 ; Move Z Axis up little to prevent scratching of Heat Bed
G1 X5 Y20 Z0.3 F5000.0 ; Move over to prevent blob squish
G92 E0
G92 E0
G1 F2700 E-5
;LAYER_COUNT:29
;LAYER:0
M107
G0 F6000 X64.49 Y225.5 Z0.28
;TYPE:SKIRT
G1 F2700 E0
G1 F1200 X64.198 Y225.218 E0.0189
G1 X63.561 Y224.482 E0.06423
G1 X63.031 Y223.751 E0.10627
G1 X62.495 Y222.854 E0.15493
G1 X62.073 Y221.976 E0.20029
G1 X61.731 Y221.064 E0.24564
G1 X61.471 Y220.126 E0.29097
G1 X61.293 Y219.157 E0.33684
G1 X61.195 Y217.978 E0.39193
G1 X61.181 Y217.327 E0.42225
G1 X61.182 Y43.194 E8.53061
G1 X61.193 Y42.494 E8.56321
G1 X61.251 Y41.521 E8.6086
G1 X61.397 Y40.558 E8.65395
G1 X61.627 Y39.612 E8.69929
G1 X61.94 Y38.689 E8.74467
G1 X62.332 Y37.799 E8.78995
G1 X62.802 Y36.946 E8.8353
G1 X63.345 Y36.138 E8.88063
G1 X63.912 Y35.434 E8.92272
G1 X64.637 Y34.682 E8.97136
G1 X65.373 Y34.045 E9.01669
G1 X66.105 Y33.515 E9.05877
G1 X67.002 Y32.98 E9.1074
G1 X67.88 Y32.559 E9.15274
G1 X68.793 Y32.217 E9.19814
G1 X69.73 Y31.958 E9.24341
G1 X70.697 Y31.78 E9.28919
G1 X71.836 Y31.684 E9.34242
G1 X72.493 Y31.669 E9.37302
G1 X216.485 Y31.669 E16.07789
G1 X217.365 Y31.682 E16.11887
G1 X218.337 Y31.741 E16.16421
G1 X219.3 Y31.887 E16.20957
G1 X220.247 Y32.118 E16.25495
G1 X221.135 Y32.418 E16.2986
G1 X222.027 Y32.808 E16.34393
G1 X222.91 Y33.295 E16.39089
G1 X223.661 Y33.797 E16.43295
G1 X224.476 Y34.455 E16.48172
G1 X225.174 Y35.133 E16.52703
G1 X225.81 Y35.87 E16.57236
G1 X226.38 Y36.66 E16.61773
G1 X226.842 Y37.436 E16.65978
G1 X227.296 Y38.378 E16.70847
G1 X227.625 Y39.256 E16.75213
G1 X227.894 Y40.228 E16.79909
G1 X228.071 Y41.194 E16.84482
G1 X228.166 Y42.324 E16.89762
G1 X228.181 Y42.999 E16.92906
G1 X228.18 Y217.069 E25.03449
G1 X228.169 Y217.832 E25.07002
G1 X228.112 Y218.805 E25.11541
G1 X227.967 Y219.768 E25.16075
G1 X227.738 Y220.714 E25.20608
G1 X227.427 Y221.638 E25.25147
G1 X227.035 Y222.529 E25.2968
G1 X226.567 Y223.381 E25.34206
G1 X226.045 Y224.162 E25.38581
G1 X225.412 Y224.947 E25.43276
G1 X224.881 Y225.5 E25.46846
G0 F6000 X224.293 Y225.5
G1 F1200 X224.498 Y225.321 E25.48113
G1 X225.123 Y224.67 E25.52316
G1 X225.712 Y223.94 E25.56683
G1 X226.234 Y223.159 E25.61057
G1 X226.684 Y222.337 E25.65421
G1 X227.061 Y221.477 E25.69793
G1 X227.359 Y220.587 E25.74164
G1 X227.578 Y219.675 E25.78531
G1 X227.716 Y218.746 E25.82904
G1 X227.77 Y217.809 E25.87275
G1 X227.78 Y217.064 E25.90744
G1 X227.781 Y42.999 E34.01264
G1 X227.767 Y42.358 E34.04249
G1 X227.672 Y41.228 E34.09529
G1 X227.501 Y40.301 E34.13919
G1 X227.25 Y39.396 E34.18292
G1 X226.921 Y38.518 E34.22658
G1 X226.498 Y37.641 E34.27192
G1 X226.036 Y36.865 E34.31397
G1 X225.486 Y36.104 E34.35769
G1 X224.872 Y35.395 E34.40136
G1 X224.198 Y34.742 E34.44506
G1 X223.439 Y34.13 E34.49046
G1 X222.688 Y33.628 E34.53252
G1 X221.867 Y33.175 E34.57619
G1 X220.975 Y32.785 E34.62152
G1 X220.119 Y32.497 E34.66357
G1 X219.206 Y32.276 E34.70731
G1 X218.278 Y32.137 E34.75101
G1 X217.341 Y32.081 E34.79472
G1 X216.479 Y32.069 E34.83486
G1 X72.502 Y32.069 E41.53903
G1 X71.87 Y32.083 E41.56847
G1 X70.731 Y32.179 E41.62169
G1 X69.803 Y32.351 E41.66564
G1 X68.9 Y32.602 E41.70928
G1 X68.021 Y32.933 E41.75302
G1 X67.176 Y33.34 E41.79669
G1 X66.34 Y33.839 E41.84202
G1 X65.608 Y34.369 E41.88411
G1 X64.899 Y34.984 E41.92781
G1 X64.224 Y35.685 E41.97312
G1 X63.657 Y36.389 E42.01521
G1 X63.134 Y37.169 E42.05894
G1 X62.683 Y37.991 E42.1026
G1 X62.306 Y38.85 E42.14628
G1 X62.006 Y39.74 E42.19002
G1 X61.786 Y40.652 E42.2337
G1 X61.647 Y41.58 E42.27739
G1 X61.592 Y42.517 E42.3211
G1 X61.582 Y43.2 E42.35291
G1 X61.581 Y217.327 E50.46099
G1 X61.594 Y217.945 E50.48977
G1 X61.692 Y219.124 E50.54486
G1 X61.864 Y220.053 E50.58885
G1 X62.116 Y220.957 E50.63255
G1 X62.447 Y221.835 E50.67625
G1 X62.855 Y222.68 E50.71994
G1 X63.355 Y223.516 E50.7653
G1 X63.885 Y224.247 E50.80734
G1 X64.5 Y224.956 E50.85104
G1 X65.066 Y225.5 E50.8876
G0 F6000 X65.678 Y225.5
G1 F1200 X65.453 Y225.319 E50.90105
G1 X64.802 Y224.693 E50.9431
G1 X64.209 Y224.012 E50.98515
G1 X63.679 Y223.281 E51.02719
G1 X63.215 Y222.506 E51.06925
G1 X62.821 Y221.693 E51.11132
G1 X62.501 Y220.849 E51.15335
G1 X62.257 Y219.979 E51.19542
G1 X62.091 Y219.091 E51.23749
G1 X61.994 Y217.936 E51.29146
G1 X61.981 Y217.327 E51.31982
G1 X61.982 Y43.205 E59.42767
G1 X61.991 Y42.54 E59.45864
G1 X62.043 Y41.638 E59.50071
G1 X62.175 Y40.745 E59.54275
G1 X62.385 Y39.867 E59.58478
G1 X62.672 Y39.01 E59.62687
G1 X63.034 Y38.183 E59.6689
G1 X63.467 Y37.391 E59.71093
G1 X63.969 Y36.64 E59.753
G1 X64.536 Y35.936 E59.79509
G1 X65.162 Y35.286 E59.83711
G1 X65.843 Y34.693 E59.87916
G1 X66.575 Y34.163 E59.92124
G1 X67.35 Y33.7 E59.96327
G1 X68.163 Y33.307 E60.00532
G1 X69.008 Y32.987 E60.04739
G1 X69.877 Y32.744 E60.08941
G1 X70.765 Y32.578 E60.13148
G1 X71.904 Y32.482 E60.1847
G1 X72.511 Y32.469 E60.21297
G1 X216.474 Y32.469 E66.91649
G1 X217.318 Y32.48 E66.9558
G1 X218.22 Y32.533 E66.99787
G1 X219.113 Y32.665 E67.0399
G1 X219.991 Y32.876 E67.08195
G1 X220.847 Y33.164 E67.124
G1 X221.674 Y33.526 E67.16604
G1 X222.466 Y33.961 E67.20812
G1 X223.217 Y34.463 E67.25018
G1 X223.92 Y35.03 E67.29223
G1 X224.57 Y35.657 E67.33429
G1 X225.162 Y36.339 E67.37634
G1 X225.692 Y37.07 E67.41838
G1 X226.154 Y37.846 E67.46044
G1 X226.547 Y38.659 E67.50248
G1 X226.865 Y39.504 E67.54452
G1 X227.108 Y40.374 E67.58659
G1 X227.273 Y41.262 E67.62864
G1 X227.368 Y42.392 E67.68145
G1 X227.381 Y42.999 E67.70972
G1 X227.38 Y217.059 E75.81468
G1 X227.371 Y217.786 E75.84853
G1 X227.32 Y218.688 E75.8906
G1 X227.189 Y219.582 E75.93267
G1 X226.98 Y220.46 E75.9747
G1 X226.694 Y221.317 E76.01677
G1 X226.333 Y222.145 E76.05883
G1 X225.901 Y222.937 E76.10084
G1 X225.4 Y223.689 E76.14291
G1 X224.834 Y224.393 E76.18498
G1 X224.209 Y225.044 E76.227
G1 X223.686 Y225.5 E76.25931
G1 F2700 E71.25931
;MESH:backPlate.stl
G0 F6000 X98.019 Y72.8
;TYPE:WALL-OUTER
G1 F2700 E76.25931
G1 F1200 X98.674 Y72.647 E76.29063
G1 X99.346 Y72.397 E76.32401
G1 X99.948 Y72.072 E76.35587
G1 X100.511 Y71.662 E76.3883
G1 X101.02 Y71.172 E76.4212
G1 X101.449 Y70.637 E76.45313
G1 X101.812 Y70.025 E76.48626
G1 X102.09 Y69.378 E76.51906
G1 X102.273 Y68.722 E76.55077
G1 X102.367 Y68.025 E76.58352
G1 X102.368 Y67.324 E76.61616
G1 X102.279 Y66.641 E76.64823
G1 X102.087 Y65.946 E76.6818
G1 X101.821 Y65.321 E76.71343
G1 X101.46 Y64.71 E76.74648
G1 X101.036 Y64.182 E76.77801
G1 X100.522 Y63.683 E76.81137
G1 X99.971 Y63.278 E76.84321
G1 X99.339 Y62.936 E76.87667
G1 X98.687 Y62.692 E76.90909
G1 X98.035 Y62.537 E76.94029
G1 X97.33 Y62.472 E76.97326
G1 X96.619 Y62.497 E77.00639
G1 X95.931 Y62.617 E77.03891
G1 X95.274 Y62.829 E77.07105
G1 X94.638 Y63.129 E77.1038
G1 X94.058 Y63.508 E77.13606
G1 X93.517 Y63.975 E77.16934
G1 X93.073 Y64.479 E77.20061
G1 X92.741 Y64.968 E77.22814
G1 X89.672 Y64.968 E77.37104
G1 X89.269 Y64.998 E77.38986
G1 X88.88 Y65.089 E77.40846
G1 X88.499 Y65.24 E77.42755
G1 X88.155 Y65.438 E77.44603
G1 X87.84 Y65.689 E77.46478
G1 X87.567 Y65.983 E77.48346
G1 X87.338 Y66.32 E77.50244
G1 X87.16 Y66.701 E77.52202
G1 X87.048 Y67.065 E77.53975
G1 X86.99 Y67.455 E77.55811
G1 X86.99 Y67.895 E77.5786
G1 X87.052 Y68.283 E77.5969
G1 X87.16 Y68.639 E77.61422
G1 X87.335 Y69.011 E77.63336
G1 X87.563 Y69.343 E77.65212
G1 X87.856 Y69.662 E77.67228
G1 X88.152 Y69.894 E77.6898
G1 X88.509 Y70.101 E77.70901
G1 X88.881 Y70.248 E77.72764
G1 X89.279 Y70.338 E77.74664
G1 X89.66 Y70.368 E77.76443
G1 X92.741 Y70.368 E77.9079
G1 X93.058 Y70.837 E77.93426
G1 X93.517 Y71.361 E77.96669
G1 X94.056 Y71.825 E77.99981
G1 X94.622 Y72.196 E78.03132
G1 X95.27 Y72.505 E78.06475
G1 X95.928 Y72.718 E78.09696
G1 X96.606 Y72.834 E78.12899
G1 X97.303 Y72.864 E78.16147
G1 X98.019 Y72.8 E78.19494
G1 F2700 E73.19494
G0 F6000 X72.651 Y217.318
G0 X72.38 Y217.468
G1 F2700 E78.19494
G1 F1200 X72.38 Y42.868 E86.32505
G1 X216.98 Y42.868 E93.05823
G1 X216.98 Y217.468 E101.18834
G1 X72.38 Y217.468 E107.92152
G1 F2700 E102.92152
G0 F6000 X72.651 Y217.318
G0 X99.339 Y197.4
G1 F2700 E107.92152
G1 F1200 X99.96 Y197.065 E107.95438
G1 X100.522 Y196.653 E107.98683
G1 X101.029 Y196.163 E108.01966
G1 X101.455 Y195.63 E108.05143
G1 X101.815 Y195.019 E108.08445
G1 X102.088 Y194.383 E108.11668
G1 X102.277 Y193.708 E108.14932
G1 X102.367 Y193.031 E108.18112
G1 X102.368 Y192.324 E108.21404
G1 X102.279 Y191.641 E108.24611
G1 X102.089 Y190.954 E108.2793
G1 X101.824 Y190.329 E108.31091
G1 X101.465 Y189.718 E108.34391
G1 X101.036 Y189.182 E108.37588
G1 X100.527 Y188.687 E108.40894
G1 X99.971 Y188.278 E108.44108
G1 X99.364 Y187.948 E108.47325
G1 X98.687 Y187.692 E108.50695
G1 X98.035 Y187.537 E108.53816
G1 X97.33 Y187.472 E108.57113
G1 X96.612 Y187.497 E108.60458
G1 X95.936 Y187.616 E108.63654
G1 X95.286 Y187.825 E108.66834
G1 X94.643 Y188.126 E108.70139
G1 X94.058 Y188.508 E108.73393
G1 X93.517 Y188.975 E108.76721
G1 X93.073 Y189.479 E108.79848
G1 X92.741 Y189.968 E108.826
G1 X89.672 Y189.968 E108.96891
G1 X89.284 Y189.996 E108.98702
G1 X88.88 Y190.089 E109.00633
G1 X88.501 Y190.239 E109.02531
G1 X88.155 Y190.438 E109.04389
G1 X87.84 Y190.689 E109.06265
G1 X87.557 Y190.996 E109.08209
G1 X87.345 Y191.312 E109.09981
G1 X87.165 Y191.683 E109.11901
G1 X87.048 Y192.065 E109.13761
G1 X86.99 Y192.455 E109.15597
G1 X86.99 Y192.895 E109.17646
G1 X87.052 Y193.287 E109.19494
G1 X87.16 Y193.639 E109.21209
G1 X87.342 Y194.024 E109.23192
G1 X87.568 Y194.354 E109.25054
G1 X87.838 Y194.642 E109.26892
G1 X88.156 Y194.894 E109.28782
G1 X88.511 Y195.1 E109.30693
G1 X88.86 Y195.242 E109.32447
G1 X89.268 Y195.336 E109.34397
G1 X89.664 Y195.368 E109.36247
G1 X92.741 Y195.368 E109.50575
G1 X93.058 Y195.837 E109.5321
G1 X93.517 Y196.361 E109.56454
G1 X94.056 Y196.825 E109.59766
G1 X94.634 Y197.203 E109.62982
G1 X95.286 Y197.511 E109.66339
G1 X95.932 Y197.719 E109.69499
G1 X96.606 Y197.834 E109.72683
G1 X97.331 Y197.864 E109.76062
G1 X98.033 Y197.798 E109.79345
G1 X98.687 Y197.644 E109.82474
G1 X99.339 Y197.4 E109.85715
G1 F2700 E104.85715
G0 F6000 X98.066 Y73.156
;TYPE:SKIN
G1 F2700 E109.85715
G1 F1200 X98.774 Y72.993 E109.89098
G1 X99.474 Y72.736 E109.92571
G1 X100.136 Y72.38 E109.96071
G1 X100.719 Y71.954 E109.99433
G1 X101.283 Y71.417 E110.03059
G1 X101.74 Y70.85 E110.0645
G1 X102.113 Y70.222 E110.09851
G1 X102.419 Y69.526 E110.13392
G1 X102.62 Y68.813 E110.16841
G1 X102.727 Y68.052 E110.20419
G1 X102.728 Y67.3 E110.23921
G1 X102.635 Y66.597 E110.27223
G1 X102.419 Y65.814 E110.31005
G1 X102.141 Y65.157 E110.34327
G1 X101.746 Y64.485 E110.37957
G1 X101.288 Y63.921 E110.4134
G1 X100.759 Y63.411 E110.44761
G1 X100.151 Y62.962 E110.48281
G1 X99.523 Y62.625 E110.51599
G1 X98.767 Y62.34 E110.55361
G1 X98.128 Y62.185 E110.58423
G1 X97.359 Y62.112 E110.6202
G1 X96.575 Y62.137 E110.65673
G1 X95.843 Y62.265 E110.69133
G1 X95.15 Y62.489 E110.72524
G1 X94.47 Y62.806 E110.76018
G1 X93.842 Y63.216 E110.7951
G1 X93.24 Y63.736 E110.83214
G1 X92.768 Y64.28 E110.86568
G1 X92.548 Y64.608 E110.88407
G1 X89.66 Y64.608 E111.01854
G1 X89.209 Y64.638 E111.03959
G1 X88.756 Y64.746 E111.06128
G1 X88.384 Y64.898 E111.07999
G1 X87.949 Y65.141 E111.10319
G1 X87.588 Y65.424 E111.12455
G1 X87.287 Y65.751 E111.14524
G1 X87.022 Y66.14 E111.16716
G1 X86.842 Y66.523 E111.18687
G1 X86.697 Y66.983 E111.20932
G1 X86.629 Y67.463 E111.2319
G1 X86.634 Y67.952 E111.25467
G1 X86.69 Y68.308 E111.27145
G1 X86.832 Y68.793 E111.29498
G1 X87.01 Y69.172 E111.31448
G1 X87.279 Y69.563 E111.33658
G1 X87.591 Y69.907 E111.3582
G1 X87.969 Y70.203 E111.38056
G1 X88.377 Y70.433 E111.40237
G1 X88.767 Y70.59 E111.42194
G1 X89.211 Y70.692 E111.44316
G1 X89.633 Y70.724 E111.46286
G1 X92.549 Y70.728 E111.59865
G1 X92.768 Y71.052 E111.61686
G1 X93.24 Y71.596 E111.65039
G1 X93.84 Y72.113 E111.68727
G1 X94.422 Y72.496 E111.71971
G1 X95.146 Y72.845 E111.75714
G1 X95.836 Y73.066 E111.79088
G1 X96.545 Y73.19 E111.82439
G1 X97.324 Y73.22 E111.86069
G1 X98.066 Y73.156 E111.89537
G1 F2700 E106.89537
G0 F6000 X72.74 Y217.219
G0 X72.74 Y217.108
G1 F2700 E111.89537
G1 F1200 X72.741 Y43.229 E119.9919
G1 X216.62 Y43.228 E126.69151
G1 X216.62 Y217.108 E134.78809
G1 X72.74 Y217.108 E141.48775
G1 F2700 E136.48775
G0 F6000 X72.74 Y217.219
G0 X99.471 Y197.735
G1 F2700 E141.48775
G1 F1200 X100.151 Y197.37 E141.52369
G1 X100.75 Y196.929 E141.55832
G1 X101.297 Y196.399 E141.59379
G1 X101.741 Y195.846 E141.62681
G1 X102.129 Y195.199 E141.66194
G1 X102.425 Y194.498 E141.69737
G1 X102.628 Y193.777 E141.73225
G1 X102.723 Y193.063 E141.76579
G1 X102.728 Y192.299 E141.80137
G1 X102.635 Y191.589 E141.83471
G1 X102.428 Y190.83 E141.87134
G1 X102.148 Y190.173 E141.9046
G1 X101.773 Y189.531 E141.93922
G1 X101.321 Y188.959 E141.97316
G1 X100.775 Y188.427 E142.00866
G1 X100.184 Y187.987 E142.04297
G1 X99.529 Y187.624 E142.07784
G1 X98.779 Y187.341 E142.11517
G1 X98.085 Y187.181 E142.14833
G1 X97.351 Y187.112 E142.18266
G1 X96.556 Y187.141 E142.2197
G1 X95.84 Y187.268 E142.25356
G1 X95.13 Y187.495 E142.28827
G1 X94.454 Y187.814 E142.32308
G1 X93.842 Y188.216 E142.35717
G1 X93.24 Y188.736 E142.39421
G1 X92.768 Y189.28 E142.42775
G1 X92.548 Y189.608 E142.44614
G1 X89.66 Y189.608 E142.58062
G1 X89.213 Y189.64 E142.60149
G1 X88.797 Y189.736 E142.62137
G1 X88.346 Y189.911 E142.64389
G1 X87.951 Y190.138 E142.66511
G1 X87.596 Y190.424 E142.68633
G1 X87.279 Y190.759 E142.70781
G1 X87.02 Y191.154 E142.7298
G1 X86.824 Y191.564 E142.75096
G1 X86.704 Y191.952 E142.76988
G1 X86.629 Y192.463 E142.79392
G1 X86.634 Y192.951 E142.81665
G1 X86.698 Y193.363 E142.83606
G1 X86.844 Y193.828 E142.85876
G1 X87.021 Y194.188 E142.87744
G1 X87.273 Y194.564 E142.89851
G1 X87.585 Y194.901 E142.9199
G1 X87.964 Y195.199 E142.94235
G1 X88.355 Y195.424 E142.96335
G1 X88.748 Y195.586 E142.98315
G1 X89.212 Y195.692 E143.00531
G1 X89.637 Y195.724 E143.02516
G1 X92.549 Y195.728 E143.16075
G1 X92.768 Y196.052 E143.17896
G1 X93.24 Y196.596 E143.2125
G1 X93.84 Y197.113 E143.24938
G1 X94.418 Y197.492 E143.28156
G1 X95.137 Y197.842 E143.3188
G1 X95.848 Y198.071 E143.35358
G1 X96.535 Y198.186 E143.38601
G1 X97.31 Y198.22 E143.42214
G1 X98.06 Y198.154 E143.45719
G1 X98.798 Y197.984 E143.49246
G1 X99.471 Y197.735 E143.52587
G1 F2700 E138.52587
G0 F6000 X72.939 Y217.219
G0 X72.939 Y216.624
G1 F2700 E143.52587
G1 F1200 X73.224 Y216.908 E143.54461
G0 F6000 X73.789 Y216.908
G1 F1200 X72.939 Y216.058 E143.60058
G0 F6000 X72.939 Y215.492
G1 F1200 X74.355 Y216.908 E143.69383
G0 F6000 X74.921 Y216.908
G1 F1200 X72.939 Y214.927 E143.82431
G0 F6000 X72.939 Y214.361
G1 F1200 X75.486 Y216.908 E143.99204
G0 F6000 X76.052 Y216.908
G1 F1200 X72.939 Y213.795 E144.19703
G0 F6000 X72.939 Y213.229
G1 F1200 X76.618 Y216.908 E144.4393
G0 F6000 X77.184 Y216.908
G1 F1200 X72.939 Y212.664 E144.71881
G0 F6000 X72.939 Y212.098
G1 F1200 X77.749 Y216.908 E145.03556
G0 F6000 X78.315 Y216.908
G1 F1200 X72.939 Y211.532 E145.38957
G0 F6000 X72.939 Y210.967
G1 F1200 X78.881 Y216.908 E145.78083
G0 F6000 X79.446 Y216.908
G1 F1200 X72.939 Y210.401 E146.20933
G0 F6000 X72.939 Y209.835
G1 F1200 X80.012 Y216.908 E146.6751
G0 F6000 X80.578 Y216.908
G1 F1200 X72.939 Y209.27 E147.17811
G0 F6000 X72.939 Y208.704
G1 F1200 X81.143 Y216.908 E147.71835
G0 F6000 X81.709 Y216.908
G1 F1200 X72.939 Y208.138 E148.29587
G0 F6000 X72.939 Y207.573
G1 F1200 X82.275 Y216.908 E148.91063
G0 F6000 X82.84 Y216.908
G1 F1200 X72.939 Y207.007 E149.56263
G0 F6000 X72.939 Y206.441
G1 F1200 X83.406 Y216.908 E150.2519
G0 F6000 X83.972 Y216.908
