;FLAVOR:Marlin
;TIME:3635
;Filament used: 3.30463m
;Layer height: 0.28
;MINX:94.5
;MINY:64.5
;MINZ:0.28
;MAXX:200.5
;MAXY:140.5
;MAXZ:7
;TARGET_MACHINE.NAME:Creality Ender-3
;Generated with Cura_SteamEngine 5.7.1
M140 S69
M105
M190 S69
M104 S200
M105
M109 S200
M82 ;absolute extrusion mode
; Ender 3 Custom Start G-code
G92 E0 ; Reset Extruder
G28 ; Home all axes
G1 Z2.0 F3000 ; Move Z Axis up little to prevent scratching of Heat Bed
G1 X0.1 Y20 Z0.3 F5000.0 ; Move to start position
G1 X0.1 Y200.0 Z0.3 F1500.0 E15 ; Draw the first line
G1 X0.4 Y200.0 Z0.3 F5000.0 ; Move to side a little
G1 X0.4 Y20 Z0.3 F1500.0 E30 ; Draw the second line
G92 E0 ; Reset Extruder
G1 Z2.0 F3000 ; Move Z Axis up little to prevent scratching of Heat Bed
G1 X5 Y20 Z0.3 F5000.0 ; Move over to prevent blob squish
G92 E0
G92 E0
G1 F2700 E-5
;LAYER_COUNT:25
;LAYER:0
M107
G0 F6000 X96.676 Y68.954 Z0.28
;TYPE:SKIRT
G1 F2700 E0
G1 F1200 X97.267 Y68.226 E0.04366
G1 X97.969 Y67.501 E0.09065
G1 X98.679 Y66.887 E0.13436
G1 X99.498 Y66.297 E0.18136
G1 X100.337 Y65.801 E0.22675
G1 X101.151 Y65.41 E0.2688
G1 X102.128 Y65.042 E0.31741
G1 X103.032 Y64.792 E0.36108
G1 X104.034 Y64.609 E0.40851
G1 X105.205 Y64.513 E0.46322
G1 X105.812 Y64.5 E0.49149
G1 X128.807 Y64.5 E1.56224
G1 X131.14 Y64.54 E1.67089
G1 X133.776 Y64.544 E1.79363
G1 X135.835 Y64.5 E1.88953
G1 X158.987 Y64.502 E2.96758
G1 X161.14 Y64.54 E3.06785
G1 X163.776 Y64.544 E3.19059
G1 X165.835 Y64.5 E3.28649
G1 X188.951 Y64.501 E4.36287
G1 X189.684 Y64.513 E4.39701
G1 X190.656 Y64.572 E4.44235
G1 X191.619 Y64.718 E4.4877
G1 X192.566 Y64.949 E4.53309
G1 X193.454 Y65.249 E4.57674
G1 X194.346 Y65.639 E4.62207
G1 X195.229 Y66.126 E4.66902
G1 X195.98 Y66.628 E4.71109
G1 X196.795 Y67.286 E4.75986
G1 X197.493 Y67.964 E4.80517
G1 X198.129 Y68.701 E4.8505
G1 X198.699 Y69.491 E4.89586
G1 X199.161 Y70.267 E4.93792
G1 X199.615 Y71.209 E4.98661
G1 X199.944 Y72.087 E5.03027
G1 X200.213 Y73.059 E5.07723
G1 X200.39 Y74.025 E5.12296
G1 X200.485 Y75.155 E5.17576
G1 X200.5 Y75.83 E5.2072
G1 X200.499 Y98.928 E6.28274
G1 X200.487 Y99.682 E6.31785
G1 X200.429 Y100.656 E6.36329
G1 X200.282 Y101.618 E6.4086
G1 X200.052 Y102.565 E6.45398
G1 X199.764 Y103.421 E6.49603
G1 X199.346 Y104.376 E6.54458
G1 X198.877 Y105.228 E6.58986
G1 X198.375 Y105.979 E6.63193
G1 X197.718 Y106.793 E6.68063
G1 X197.039 Y107.493 E6.72604
G1 X196.304 Y108.129 E6.7713
G1 X195.559 Y108.67 E6.81418
G1 X193.688 Y109.908 E6.91864
G1 X191.646 Y111.331 E7.03454
G1 X189.634 Y112.823 E7.15117
G1 X187.64 Y114.389 E7.26923
G1 X185.709 Y115.995 E7.38618
G1 X183.804 Y117.675 E7.50445
G1 X181.972 Y119.379 E7.62096
G1 X180.199 Y121.135 E7.73715
G1 X178.435 Y122.976 E7.85588
G1 X176.748 Y124.842 E7.97301
G1 X175.096 Y126.776 E8.09145
G1 X173.535 Y128.711 E8.20721
G1 X172.037 Y130.681 E8.32245
G1 X170.526 Y132.788 E8.44318
G1 X169.136 Y134.847 E8.55886
G1 X168.675 Y135.55 E8.59801
G1 X168.147 Y136.283 E8.64007
G1 X167.462 Y137.072 E8.68872
G1 X166.761 Y137.748 E8.73407
G1 X166.001 Y138.358 E8.77945
G1 X165.192 Y138.899 E8.82477
G1 X164.369 Y139.351 E8.86849
G1 X163.445 Y139.756 E8.91546
G1 X162.521 Y140.066 E8.96085
G1 X161.574 Y140.293 E9.00619
G1 X160.681 Y140.427 E9.04824
G1 X159.794 Y140.487 E9.08964
G1 X159.17 Y140.5 E9.1187
G1 X136.013 Y140.498 E10.19699
G1 X133.86 Y140.46 E10.29725
G1 X131.224 Y140.456 E10.42
G1 X129.165 Y140.5 E10.5159
G1 X106.049 Y140.499 E11.59227
G1 X105.316 Y140.487 E11.62641
G1 X104.344 Y140.428 E11.67175
G1 X103.381 Y140.282 E11.71711
G1 X102.434 Y140.051 E11.7625
G1 X101.546 Y139.751 E11.80614
G1 X100.654 Y139.361 E11.85147
G1 X99.771 Y138.874 E11.89843
G1 X99.02 Y138.372 E11.94049
G1 X98.205 Y137.714 E11.98926
G1 X97.507 Y137.036 E12.03458
G1 X96.871 Y136.299 E12.0799
G1 X96.301 Y135.509 E12.12527
G1 X95.839 Y134.733 E12.16732
G1 X95.385 Y133.791 E12.21601
G1 X95.056 Y132.913 E12.25967
G1 X94.787 Y131.94 E12.30668
G1 X94.61 Y130.973 E12.35245
G1 X94.514 Y129.808 E12.40688
G1 X94.5 Y129.158 E12.43716
G1 X94.502 Y106.013 E13.51489
G1 X94.54 Y103.86 E13.61515
G1 X94.544 Y101.205 E13.73878
G1 X94.5 Y99.165 E13.8338
G1 X94.501 Y76.009 E14.91204
G1 X94.513 Y75.308 E14.94468
G1 X94.573 Y74.335 E14.99007
G1 X94.72 Y73.374 E15.03534
G1 X94.951 Y72.426 E15.08078
G1 X95.253 Y71.537 E15.1245
G1 X95.66 Y70.615 E15.17143
G1 X96.131 Y69.763 E15.21676
G1 X96.676 Y68.954 E15.26218
G0 F6000 X96.987 Y69.206
G1 F1200 X97.578 Y68.478 E15.30584
G1 X98.231 Y67.804 E15.34954
G1 X98.941 Y67.19 E15.39325
G1 X99.702 Y66.641 E15.43694
G1 X100.51 Y66.162 E15.48068
G1 X101.324 Y65.771 E15.52273
G1 X102.235 Y65.428 E15.56806
G1 X103.139 Y65.178 E15.61173
G1 X104.067 Y65.008 E15.65566
G1 X105.214 Y64.913 E15.70925
G1 X105.821 Y64.9 E15.73752
G1 X128.8 Y64.9 E16.80752
G1 X131.133 Y64.94 E16.91617
G1 X133.784 Y64.944 E17.03961
G1 X135.835 Y64.9 E17.13514
G1 X158.98 Y64.902 E18.21287
G1 X161.133 Y64.94 E18.31314
G1 X163.784 Y64.944 E18.43658
G1 X165.835 Y64.9 E18.5321
G1 X188.945 Y64.901 E19.6082
G1 X189.66 Y64.912 E19.6415
G1 X190.597 Y64.968 E19.68521
G1 X191.525 Y65.107 E19.7289
G1 X192.438 Y65.328 E19.77264
G1 X193.294 Y65.616 E19.8147
G1 X194.186 Y66.006 E19.86003
G1 X195.007 Y66.459 E19.90369
G1 X195.758 Y66.961 E19.94575
G1 X196.517 Y67.573 E19.99115
G1 X197.191 Y68.226 E20.03485
G1 X197.805 Y68.935 E20.07852
G1 X198.355 Y69.696 E20.12225
G1 X198.817 Y70.472 E20.1643
G1 X199.24 Y71.349 E20.20964
G1 X199.569 Y72.227 E20.2533
G1 X199.82 Y73.132 E20.29703
G1 X199.991 Y74.059 E20.34092
G1 X200.086 Y75.189 E20.39372
G1 X200.1 Y75.83 E20.42358
G1 X200.099 Y98.922 E21.49884
G1 X200.088 Y99.659 E21.53316
G1 X200.033 Y100.596 E21.57687
G1 X199.893 Y101.524 E21.62057
G1 X199.673 Y102.437 E21.6643
G1 X199.385 Y103.293 E21.70635
G1 X198.995 Y104.184 E21.75164
G1 X198.544 Y105.006 E21.7953
G1 X198.042 Y105.757 E21.83736
G1 X197.43 Y106.515 E21.88273
G1 X196.777 Y107.191 E21.92649
G1 X196.069 Y107.805 E21.97013
G1 X195.338 Y108.336 E22.0122
G1 X193.467 Y109.574 E22.11667
G1 X191.417 Y111.003 E22.23303
G1 X189.387 Y112.508 E22.3507
G1 X187.384 Y114.081 E22.46929
G1 X185.453 Y115.687 E22.58624
G1 X183.539 Y117.375 E22.70507
G1 X181.7 Y119.087 E22.82206
G1 X179.91 Y120.858 E22.93931
G1 X178.146 Y122.699 E23.05804
G1 X176.451 Y124.574 E23.17573
G1 X174.792 Y126.516 E23.29466
G1 X173.224 Y128.46 E23.41096
G1 X171.712 Y130.448 E23.52726
G1 X170.201 Y132.555 E23.64799
G1 X168.801 Y134.628 E23.76447
G1 X168.35 Y135.316 E23.80278
G1 X167.822 Y136.049 E23.84484
G1 X167.184 Y136.785 E23.8902
G1 X166.51 Y137.437 E23.93386
G1 X165.779 Y138.026 E23.97758
G1 X164.999 Y138.548 E24.02128
G1 X164.176 Y139 E24.065
G1 X163.317 Y139.377 E24.10868
G1 X162.427 Y139.677 E24.15241
G1 X161.515 Y139.897 E24.1961
G1 X160.622 Y140.031 E24.23815
G1 X159.786 Y140.087 E24.27716
G1 X159.17 Y140.1 E24.30585
G1 X136.02 Y140.098 E25.38381
G1 X133.867 Y140.06 E25.48408
G1 X131.216 Y140.056 E25.60752
G1 X129.165 Y140.1 E25.70305
G1 X106.055 Y140.099 E26.77915
G1 X105.34 Y140.088 E26.81244
G1 X104.403 Y140.032 E26.85615
G1 X103.475 Y139.893 E26.89985
G1 X102.562 Y139.672 E26.94359
G1 X101.706 Y139.384 E26.98564
G1 X100.814 Y138.994 E27.03097
G1 X99.993 Y138.541 E27.07463
G1 X99.242 Y138.039 E27.1167
G1 X98.483 Y137.427 E27.1621
G1 X97.809 Y136.774 E27.2058
G1 X97.195 Y136.065 E27.24947
G1 X96.645 Y135.304 E27.29319
G1 X96.183 Y134.528 E27.33524
G1 X95.76 Y133.651 E27.38058
G1 X95.431 Y132.773 E27.42424
G1 X95.18 Y131.868 E27.46797
G1 X95.009 Y130.94 E27.51191
G1 X94.913 Y129.775 E27.56634
G1 X94.9 Y129.158 E27.59508
G1 X94.902 Y106.02 E28.67248
G1 X94.94 Y103.867 E28.77275
G1 X94.944 Y101.206 E28.89666
G1 X94.9 Y99.165 E28.99172
G1 X94.901 Y76.015 E30.06968
G1 X94.912 Y75.332 E30.10149
G1 X94.969 Y74.395 E30.1452
G1 X95.109 Y73.468 E30.18885
G1 X95.33 Y72.555 E30.23259
G1 X95.632 Y71.666 E30.27631
G1 X96.01 Y70.808 E30.31997
G1 X96.463 Y69.986 E30.36367
G1 X96.987 Y69.206 E30.40743
G0 F6000 X97.298 Y69.458
G1 F1200 X97.866 Y68.756 E30.44947
G1 X98.493 Y68.106 E30.49153
G1 X99.175 Y67.514 E30.53358
G1 X99.907 Y66.985 E30.57563
G1 X100.683 Y66.523 E30.61769
G1 X101.497 Y66.132 E30.65974
G1 X102.342 Y65.813 E30.70179
G1 X103.212 Y65.571 E30.74384
G1 X104.1 Y65.407 E30.78589
G1 X105.223 Y65.313 E30.83836
G1 X105.83 Y65.3 E30.86664
G1 X128.793 Y65.3 E31.93589
G1 X131.126 Y65.34 E32.04454
G1 X133.792 Y65.344 E32.16868
G1 X135.835 Y65.3 E32.26383
G1 X158.973 Y65.302 E33.34123
G1 X161.126 Y65.34 E33.4415
G1 X163.792 Y65.344 E33.56564
G1 X165.835 Y65.3 E33.6608
G1 X188.939 Y65.301 E34.73661
G1 X189.637 Y65.311 E34.76912
G1 X190.539 Y65.364 E34.81119
G1 X191.432 Y65.496 E34.85323
G1 X192.31 Y65.707 E34.89527
G1 X193.166 Y65.995 E34.93733
G1 X193.993 Y66.357 E34.97936
G1 X194.785 Y66.792 E35.02144
G1 X195.536 Y67.294 E35.0635
G1 X196.239 Y67.861 E35.10556
G1 X196.889 Y68.488 E35.14761
G1 X197.481 Y69.17 E35.18966
G1 X198.011 Y69.901 E35.23171
G1 X198.473 Y70.677 E35.27376
G1 X198.866 Y71.49 E35.31581
G1 X199.184 Y72.335 E35.35785
G1 X199.427 Y73.205 E35.39991
G1 X199.592 Y74.093 E35.44197
G1 X199.687 Y75.223 E35.49477
G1 X199.7 Y75.83 E35.52304
G1 X199.699 Y98.916 E36.59802
G1 X199.689 Y99.636 E36.63155
G1 X199.637 Y100.537 E36.67357
G1 X199.504 Y101.431 E36.71566
G1 X199.294 Y102.309 E36.7577
G1 X199.006 Y103.165 E36.79975
G1 X198.644 Y103.992 E36.84179
G1 X198.211 Y104.784 E36.88382
G1 X197.709 Y105.535 E36.92588
G1 X197.142 Y106.238 E36.96794
G1 X196.515 Y106.889 E37.01002
G1 X195.834 Y107.481 E37.05204
G1 X195.117 Y108.002 E37.09331
G1 X193.246 Y109.24 E37.19778
G1 X191.188 Y110.675 E37.3146
G1 X189.14 Y112.193 E37.43331
G1 X187.137 Y113.766 E37.5519
G1 X185.197 Y115.38 E37.66941
G1 X183.266 Y117.082 E37.78926
G1 X181.428 Y118.795 E37.90626
G1 X179.621 Y120.581 E38.02456
G1 X177.857 Y122.422 E38.14328
G1 X176.154 Y124.306 E38.26154
G1 X174.488 Y126.256 E38.38097
G1 X172.913 Y128.209 E38.49779
G1 X171.387 Y130.215 E38.61516
G1 X169.876 Y132.322 E38.73589
G1 X168.466 Y134.409 E38.85317
G1 X168.025 Y135.082 E38.89063
G1 X167.497 Y135.815 E38.9327
G1 X166.906 Y136.498 E38.97476
G1 X166.258 Y137.126 E39.01677
G1 X165.556 Y137.694 E39.05882
G1 X164.806 Y138.198 E39.1009
G1 X164.015 Y138.634 E39.14295
G1 X163.189 Y138.998 E39.18499
G1 X162.333 Y139.288 E39.22707
G1 X161.456 Y139.501 E39.26909
G1 X160.563 Y139.635 E39.31114
G1 X159.777 Y139.687 E39.34782
G1 X159.17 Y139.7 E39.37609
G1 X136.027 Y139.698 E40.45373
G1 X133.874 Y139.66 E40.554
G1 X131.208 Y139.656 E40.67814
G1 X129.165 Y139.7 E40.77329
G1 X106.061 Y139.699 E41.84911
G1 X105.363 Y139.689 E41.88161
G1 X104.461 Y139.636 E41.92369
G1 X103.568 Y139.504 E41.96572
G1 X102.69 Y139.293 E42.00777
G1 X101.834 Y139.005 E42.04982
G1 X101.007 Y138.643 E42.09186
G1 X100.215 Y138.208 E42.13393
G1 X99.464 Y137.706 E42.176
G1 X98.761 Y137.139 E42.21805
G1 X98.111 Y136.512 E42.2601
G1 X97.519 Y135.83 E42.30216
G1 X96.989 Y135.099 E42.3442
G1 X96.527 Y134.323 E42.38625
G1 X96.134 Y133.51 E42.4283
G1 X95.816 Y132.665 E42.47034
G1 X95.573 Y131.795 E42.5124
G1 X95.408 Y130.907 E42.55446
G1 X95.313 Y129.766 E42.60777
G1 X95.3 Y129.158 E42.63609
G1 X95.302 Y106.027 E43.71317
G1 X95.34 Y103.874 E43.81343
G1 X95.344 Y101.207 E43.93762
G1 X95.3 Y99.165 E44.03273
G1 X95.301 Y76.021 E45.11041
G1 X95.311 Y75.356 E45.14138
G1 X95.365 Y74.454 E45.18345
G1 X95.498 Y73.561 E45.22549
G1 X95.709 Y72.683 E45.26754
G1 X95.998 Y71.827 E45.30961
G1 X96.361 Y71 E45.35167
G1 X96.795 Y70.209 E45.39368
G1 X97.298 Y69.458 E45.43577
G1 F2700 E40.43577
G0 F6000 X116.219 Y86.732
G1 F2700 E45.43577
G1 F1200 X116.442 Y86.442 E45.4528
G1 X116.753 Y86.202 E45.47109
G1 X117.113 Y86.055 E45.4892
G1 X117.476 Y86.006 E45.50626
G1 X117.597 Y86.041 E45.51212
G1 X117.807 Y86.261 E45.52628
G1 X117.917 Y86.32 E45.5321
G1 X118.006 Y86.315 E45.53625
G1 X118.187 Y86.264 E45.545
G1 X118.408 Y86.326 E45.55569
G1 X118.555 Y86.439 E45.56432
G1 X118.799 Y86.756 E45.58295
G1 X118.945 Y87.113 E45.60091
G1 X118.997 Y87.5 E45.61909
G1 X118.968 Y87.713 E45.6291
G1 X118.906 Y87.776 E45.63322
G1 X118.851 Y87.888 E45.63903
G1 X118.857 Y87.971 E45.6429
G1 X118.878 Y88.044 E45.64644
G1 X118.792 Y88.252 E45.65692
G1 X118.562 Y88.555 E45.67463
G1 X118.245 Y88.798 E45.69323
G1 X117.886 Y88.945 E45.7113
G1 X117.708 Y88.97 E45.71967
G1 X117.501 Y88.909 E45.72972
G1 X117.442 Y88.85 E45.7336
G1 X117.331 Y88.793 E45.73941
G1 X117.248 Y88.798 E45.74328
G1 X116.953 Y88.88 E45.75754
G1 X116.755 Y88.799 E45.7675
G1 X116.442 Y88.558 E45.7859
G1 X116.202 Y88.247 E45.80419
G1 X116.056 Y87.891 E45.8221
G1 X116.01 Y87.541 E45.83854
G1 X116.051 Y87.396 E45.84556
G1 X116.195 Y87.245 E45.85527
G1 X116.248 Y87.132 E45.86109
G1 X116.242 Y87.05 E45.86492
G1 X116.184 Y86.852 E45.87452
G1 X116.219 Y86.732 E45.88034
G0 F6000 X116.609 Y86.882
G1 F1200 X116.728 Y86.728 E45.88941
G1 X116.956 Y86.551 E45.90285
G1 X117.217 Y86.445 E45.91596
G1 X117.405 Y86.419 E45.9248
G1 X117.518 Y86.537 E45.93241
G1 X117.695 Y86.665 E45.94258
G1 X117.905 Y86.721 E45.9527
G1 X118.115 Y86.7 E45.96253
G1 X118.188 Y86.679 E45.96606
G1 X118.224 Y86.69 E45.96782
G1 X118.271 Y86.726 E45.97057
G1 X118.45 Y86.958 E45.98422
G1 X118.555 Y87.217 E45.99723
G1 X118.594 Y87.499 E46.01049
G1 X118.587 Y87.546 E46.0127
G1 X118.499 Y87.677 E46.02005
G1 X118.45 Y87.889 E46.03018
G1 X118.463 Y88.002 E46.03548
G1 X118.444 Y88.048 E46.03779
G1 X118.273 Y88.273 E46.05095
G1 X118.045 Y88.448 E46.06434
G1 X117.782 Y88.555 E46.07756
G1 X117.736 Y88.562 E46.07972
G1 X117.704 Y88.552 E46.08129
G1 X117.546 Y88.443 E46.09022
G1 X117.333 Y88.392 E46.10042
G1 X117.141 Y88.413 E46.10942
G1 X116.979 Y88.458 E46.11724
G1 X116.956 Y88.448 E46.11841
G1 X116.727 Y88.272 E46.13186
G1 X116.552 Y88.045 E46.14521
G1 X116.447 Y87.789 E46.15809
G1 X116.42 Y87.589 E46.16749
G1 X116.485 Y87.521 E46.17187
G1 X116.604 Y87.338 E46.18203
G1 X116.65 Y87.125 E46.19218
G1 X116.625 Y86.937 E46.20101
G1 X116.609 Y86.882 E46.20368
G0 F6000 X117.041 Y86.992
G1 F1200 X117.158 Y86.901 E46.21058
G1 X117.278 Y86.852 E46.21662
G1 X117.45 Y86.988 E46.22683
G1 X117.711 Y87.094 E46.23994
G1 X117.992 Y87.122 E46.25309
G1 X118.062 Y87.111 E46.25639
G1 X118.099 Y87.158 E46.25918
G1 X118.165 Y87.321 E46.26737
G1 X118.18 Y87.427 E46.27235
G1 X118.168 Y87.443 E46.27328
G1 X118.071 Y87.707 E46.28638
G1 X118.058 Y87.895 E46.29515
G1 X117.99 Y87.985 E46.30041
G1 X117.841 Y88.099 E46.30914
G1 X117.789 Y88.12 E46.31175
G1 X117.782 Y88.115 E46.31215
G1 X117.518 Y88.015 E46.3253
G1 X117.237 Y87.993 E46.33842
G1 X117.059 Y88.023 E46.34683
G1 X117.014 Y87.988 E46.34948
G1 X116.901 Y87.841 E46.35812
G1 X116.843 Y87.7 E46.36522
G1 X116.938 Y87.567 E46.37283
G1 X117.031 Y87.3 E46.38599
G1 X117.046 Y87.018 E46.39914
G1 X117.041 Y86.992 E46.40038
G0 F6000 X117.41 Y87.405
G1 F1200 X117.497 Y87.447 E46.40487
G1 X117.716 Y87.494 E46.4153
G1 X117.711 Y87.505 E46.41587
G1 X117.685 Y87.649 E46.42268
G1 X117.396 Y87.594 E46.43638
G1 X117.352 Y87.599 E46.43844
G1 X117.395 Y87.497 E46.44359
G1 X117.41 Y87.405 E46.44794
G1 F2700 E41.44794
G0 F6000 X146.01 Y87.541
G1 F2700 E46.44794
G1 F1200 X146.051 Y87.396 E46.45495
G1 X146.195 Y87.245 E46.46467
G1 X146.248 Y87.132 E46.47048
G1 X146.242 Y87.05 E46.47431
G1 X146.184 Y86.852 E46.48392
G1 X146.219 Y86.732 E46.48974
G1 X146.442 Y86.442 E46.50677
G1 X146.753 Y86.202 E46.52506
G1 X147.113 Y86.055 E46.54317
G1 X147.476 Y86.006 E46.56023
G1 X147.597 Y86.041 E46.56609
G1 X147.807 Y86.261 E46.58025
G1 X147.917 Y86.32 E46.58606
G1 X148.006 Y86.315 E46.59022
G1 X148.187 Y86.264 E46.59897
G1 X148.408 Y86.326 E46.60966
G1 X148.555 Y86.439 E46.61829
G1 X148.799 Y86.756 E46.63692
G1 X148.945 Y87.113 E46.65488
G1 X148.997 Y87.5 E46.67306
G1 X148.968 Y87.713 E46.68307
G1 X148.906 Y87.776 E46.68719
G1 X148.851 Y87.888 E46.693
G1 X148.857 Y87.971 E46.69687
G1 X148.878 Y88.044 E46.70041
G1 X148.792 Y88.252 E46.71089
G1 X148.562 Y88.555 E46.7286
G1 X148.245 Y88.798 E46.7472
G1 X147.886 Y88.945 E46.76527
G1 X147.708 Y88.97 E46.77364
G1 X147.501 Y88.909 E46.78368
G1 X147.442 Y88.85 E46.78757
G1 X147.331 Y88.793 E46.79338
G1 X147.248 Y88.798 E46.79725
G1 X146.953 Y88.88 E46.81151
G1 X146.755 Y88.799 E46.82147
