;FLAVOR:Marlin
;TIME:13188
;Filament used: 10.9766m
;Layer height: 0.28
;MINX:61.704
;MINY:9.5
;MINZ:0.28
;MAXX:228.704
;MAXY:204.173
;MAXZ:19.88
;TARGET_MACHINE.NAME:Creality Ender-3
;Generated with Cura_SteamEngine 5.7.1
M140 S69
M105
M190 S69
M104 S200
M105
M109 S200
M82 ;absolute extrusion mode
; Ender 3 Custom Start G-code
G92 E0 ; Reset Extruder
G28 ; Home all axes
G1 Z2.0 F3000 ; Move Z Axis up little to prevent scratching of Heat Bed
G1 X0.1 Y20 Z0.3 F5000.0 ; Move to start position
G1 X0.1 Y200.0 Z0.3 F1500.0 E15 ; Draw the first line
G1 X0.4 Y200.0 Z0.3 F5000.0 ; Move to side a little
G1 X0.4 Y20 Z0.3 F1500.0 E30 ; Draw the second line
G92 E0 ; Reset Extruder
G1 Z2.0 F3000 ; Move Z Axis up little to prevent scratching of Heat Bed
G1 X5 Y20 Z0.3 F5000.0 ; Move over to prevent blob squish
G92 E0
G92 E0
G1 F2700 E-5
;LAYER_COUNT:71
;LAYER:0
M107
G0 F6000 X65.965 Y9.5 Z0.28
;TYPE:SKIRT
G1 F2700 E0
G1 F1200 X65.897 Y9.549 E0.0039
G1 X65.16 Y10.186 E0.04926
G1 X64.435 Y10.938 E0.0979
G1 X63.868 Y11.642 E0.13999
G1 X63.325 Y12.45 E0.18532
G1 X62.855 Y13.303 E0.23067
G1 X62.463 Y14.193 E0.27596
G1 X62.15 Y15.116 E0.32134
G1 X61.92 Y16.062 E0.36667
G1 X61.774 Y17.025 E0.41203
G1 X61.716 Y17.998 E0.45741
G1 X61.705 Y18.698 E0.49001
G1 X61.704 Y192.831 E8.59837
G1 X61.718 Y193.482 E8.6287
G1 X61.816 Y194.661 E8.68378
G1 X61.994 Y195.63 E8.72966
G1 X62.254 Y196.568 E8.77498
G1 X62.596 Y197.48 E8.82034
G1 X63.018 Y198.358 E8.8657
G1 X63.554 Y199.255 E8.91436
G1 X64.084 Y199.986 E8.9564
G1 X64.721 Y200.722 E9.00172
G1 X65.474 Y201.447 E9.0504
G1 X66.178 Y202.013 E9.09246
G1 X67.017 Y202.574 E9.13945
G1 X67.84 Y203.025 E9.18315
G1 X68.73 Y203.417 E9.22844
G1 X69.654 Y203.729 E9.27385
G1 X70.6 Y203.958 E9.31917
G1 X71.563 Y204.104 E9.36453
G1 X72.535 Y204.161 E9.40986
G1 X73.268 Y204.172 E9.444
G1 X217.374 Y204.173 E16.15418
G1 X218.049 Y204.158 E16.18562
G1 X219.2 Y204.06 E16.23941
G1 X220.166 Y203.882 E16.28514
G1 X221.105 Y203.621 E16.33053
G1 X222.016 Y203.279 E16.37584
G1 X222.894 Y202.857 E16.4212
G1 X223.761 Y202.34 E16.4682
G1 X224.521 Y201.79 E16.51188
G1 X225.31 Y201.102 E16.56063
G1 X225.935 Y200.451 E16.60265
G1 X226.568 Y199.666 E16.64961
G1 X227.09 Y198.885 E16.69335
G1 X227.558 Y198.033 E16.73861
G1 X227.95 Y197.142 E16.78394
G1 X228.261 Y196.218 E16.82934
G1 X228.49 Y195.272 E16.87466
G1 X228.635 Y194.309 E16.92001
G1 X228.692 Y193.336 E16.96539
G1 X228.703 Y192.573 E17.00092
G1 X228.704 Y18.503 E25.10635
G1 X228.689 Y17.828 E25.13779
G1 X228.594 Y16.698 E25.19059
G1 X228.417 Y15.732 E25.23632
G1 X228.148 Y14.76 E25.28328
G1 X227.819 Y13.882 E25.32694
G1 X227.365 Y12.94 E25.37564
G1 X226.903 Y12.164 E25.41769
G1 X226.333 Y11.374 E25.46305
G1 X225.697 Y10.637 E25.50838
G1 X224.999 Y9.959 E25.55369
G1 X224.432 Y9.5 E25.58766
G0 F6000 X223.761 Y9.5
G1 F1200 X223.962 Y9.634 E25.59891
G1 X224.721 Y10.246 E25.64431
G1 X225.395 Y10.899 E25.688
G1 X226.009 Y11.608 E25.73168
G1 X226.559 Y12.369 E25.7754
G1 X227.021 Y13.145 E25.81745
G1 X227.444 Y14.022 E25.86279
G1 X227.773 Y14.9 E25.90645
G1 X228.024 Y15.805 E25.95018
G1 X228.195 Y16.732 E25.99407
G1 X228.29 Y17.862 E26.04688
G1 X228.304 Y18.503 E26.07673
G1 X228.303 Y192.568 E34.18193
G1 X228.293 Y193.313 E34.21662
G1 X228.239 Y194.25 E34.26032
G1 X228.101 Y195.179 E34.30406
G1 X227.882 Y196.091 E34.34773
G1 X227.584 Y196.981 E34.39143
G1 X227.207 Y197.841 E34.43516
G1 X226.757 Y198.663 E34.47879
G1 X226.235 Y199.444 E34.52254
G1 X225.646 Y200.174 E34.56621
G1 X225.021 Y200.825 E34.60824
G1 X224.286 Y201.466 E34.65365
G1 X223.526 Y202.016 E34.69733
G1 X222.72 Y202.497 E34.74104
G1 X221.875 Y202.905 E34.78473
G1 X220.997 Y203.236 E34.82842
G1 X220.093 Y203.489 E34.87213
G1 X219.166 Y203.661 E34.91603
G1 X218.015 Y203.759 E34.96982
G1 X217.374 Y203.773 E34.99968
G1 X73.274 Y203.772 E41.70958
G1 X72.558 Y203.762 E41.74292
G1 X71.622 Y203.708 E41.78658
G1 X70.693 Y203.569 E41.83032
G1 X69.781 Y203.35 E41.87399
G1 X68.891 Y203.051 E41.91771
G1 X68.032 Y202.674 E41.96139
G1 X67.209 Y202.223 E42.00509
G1 X66.429 Y201.701 E42.04879
G1 X65.725 Y201.135 E42.09086
G1 X65.023 Y200.46 E42.1362
G1 X64.408 Y199.751 E42.17991
G1 X63.878 Y199.02 E42.22195
G1 X63.378 Y198.184 E42.26731
G1 X62.97 Y197.339 E42.311
G1 X62.639 Y196.461 E42.35469
G1 X62.387 Y195.557 E42.39839
G1 X62.215 Y194.628 E42.44239
G1 X62.117 Y193.449 E42.49748
G1 X62.104 Y192.831 E42.52626
G1 X62.105 Y18.704 E50.63434
G1 X62.115 Y18.021 E50.66615
G1 X62.17 Y17.084 E50.70985
G1 X62.309 Y16.156 E50.75355
G1 X62.529 Y15.244 E50.79723
G1 X62.829 Y14.354 E50.84096
G1 X63.206 Y13.495 E50.88465
G1 X63.657 Y12.673 E50.9283
G1 X64.18 Y11.893 E50.97203
G1 X64.747 Y11.189 E51.01412
G1 X65.422 Y10.488 E51.05944
G1 X66.131 Y9.873 E51.10314
G1 X66.648 Y9.5 E51.13283
G0 F6000 X67.378 Y9.5
G1 F1200 X67.098 Y9.667 E51.14801
G1 X66.366 Y10.197 E51.19009
G1 X65.685 Y10.79 E51.23214
G1 X65.059 Y11.44 E51.27416
G1 X64.492 Y12.144 E51.31625
G1 X63.99 Y12.895 E51.35831
G1 X63.557 Y13.687 E51.40034
G1 X63.195 Y14.514 E51.44238
G1 X62.908 Y15.371 E51.48446
G1 X62.698 Y16.249 E51.5265
G1 X62.566 Y17.142 E51.56853
G1 X62.514 Y18.044 E51.6106
G1 X62.505 Y18.709 E51.64157
G1 X62.504 Y192.831 E59.74942
G1 X62.517 Y193.44 E59.77778
G1 X62.614 Y194.595 E59.83176
G1 X62.78 Y195.483 E59.87382
G1 X63.024 Y196.353 E59.9159
G1 X63.344 Y197.197 E59.95793
G1 X63.738 Y198.01 E59.99999
G1 X64.202 Y198.785 E60.04205
G1 X64.732 Y199.516 E60.0841
G1 X65.325 Y200.197 E60.12614
G1 X65.976 Y200.823 E60.1682
G1 X66.68 Y201.389 E60.21026
G1 X67.431 Y201.89 E60.2523
G1 X68.224 Y202.323 E60.29437
G1 X69.051 Y202.684 E60.33639
G1 X69.908 Y202.971 E60.37847
G1 X70.786 Y203.18 E60.4205
G1 X71.68 Y203.312 E60.46258
G1 X72.581 Y203.363 E60.5046
G1 X73.279 Y203.372 E60.5371
G1 X217.374 Y203.373 E67.24677
G1 X217.981 Y203.36 E67.27504
G1 X219.132 Y203.262 E67.32883
G1 X220.019 Y203.096 E67.37085
G1 X220.889 Y202.851 E67.41294
G1 X221.733 Y202.531 E67.45497
G1 X222.546 Y202.137 E67.49703
G1 X223.32 Y201.673 E67.53905
G1 X224.051 Y201.142 E67.58113
G1 X224.732 Y200.548 E67.6232
G1 X225.357 Y199.897 E67.66523
G1 X225.923 Y199.193 E67.70729
G1 X226.424 Y198.441 E67.74936
G1 X226.856 Y197.649 E67.79137
G1 X227.217 Y196.821 E67.83343
G1 X227.503 Y195.964 E67.8755
G1 X227.712 Y195.086 E67.91753
G1 X227.843 Y194.192 E67.9596
G1 X227.894 Y193.29 E68.00167
G1 X227.903 Y192.563 E68.03552
G1 X227.904 Y18.503 E76.14048
G1 X227.891 Y17.896 E76.16876
G1 X227.796 Y16.766 E76.22156
G1 X227.631 Y15.878 E76.26362
G1 X227.388 Y15.008 E76.30568
G1 X227.07 Y14.163 E76.34772
G1 X226.677 Y13.35 E76.38977
G1 X226.215 Y12.574 E76.43182
G1 X225.685 Y11.843 E76.47386
G1 X225.093 Y11.161 E76.51591
G1 X224.443 Y10.534 E76.55797
G1 X223.74 Y9.967 E76.60002
G1 X223.041 Y9.5 E76.63917
G1 F2700 E71.63917
;MESH:mainBody.stl
G0 F6000 X73.404 Y192.997
;TYPE:WALL-OUTER
G1 F2700 E76.63917
G1 F1315.1 X72.909 Y192.946 E76.66031
G1 F1311.5 X72.88 Y192.532 E76.67799
G1 F1363.6 X72.88 Y134.645 E79.05
G1 F1367.5 X72.88 Y76.758 E81.41527
G1 F1371.4 X72.879 Y18.871 E83.77379
G1 F1315.1 X72.93 Y18.377 E83.7949
G1 F1311.5 X73.344 Y18.348 E83.81258
G1 F1363.6 X125.172 Y18.348 E85.93631
G1 F1371.4 X177 Y18.347 E88.04797
G1 F1280 X177.7 Y18.372 E88.07855
G1 F1200 X217.504 Y18.372 E89.93199
G1 X217.504 Y192.972 E98.0621
G1 X177.7 Y192.972 E99.91554
G1 F1276.6 X177.06 Y192.996 E99.94357
G1 F1363.6 X125.232 Y192.996 E102.0673
G1 F1371.4 X73.404 Y192.997 E104.17896
G0 F6000 X73.404 Y192.647
G1 F1371.4 X125.217 Y192.647 E106.29001
G1 F1363.6 X177.03 Y192.646 E108.41313
G1 F1276.6 X177.2 Y192.472 E108.42377
G1 F1200 X177.2 Y18.872 E116.50732
G1 F1280 X177 Y18.697 E116.51892
G1 F1371.4 X125.187 Y18.697 E118.62997
G1 F1363.6 X73.374 Y18.698 E120.75309
G1 F1259.8 X73.259 Y18.727 E120.75835
G1 F1263.2 X73.229 Y18.872 E120.7649
G1 F1371.4 X73.229 Y76.749 E123.12302
G1 F1367.5 X73.229 Y134.626 E125.48788
G1 F1363.6 X73.23 Y192.503 E127.85947
G1 F1259.8 X73.259 Y192.617 E127.86469
G1 F1263.2 X73.404 Y192.647 E127.87124
G1 F2700 E122.87124
G0 F6000 X182.619 Y178.37
G1 F2700 E127.87124
G1 F1200 X207.725 Y178.371 E129.04028
G1 X207.807 Y178.344 E129.0443
G1 X207.902 Y178.207 E129.05206
G1 X207.902 Y153.138 E130.21938
G1 X207.811 Y153.002 E130.227
G1 X207.704 Y152.972 E130.23217
G1 X182.686 Y152.972 E131.39712
G1 X182.568 Y153.024 E131.40312
G1 X182.504 Y153.127 E131.40877
G1 X182.506 Y178.207 E132.5766
G1 X182.619 Y178.37 E132.58583
G1 F2700 E127.58583
G0 F6000 X182.641 Y148.372
G1 F2700 E132.58583
G1 F1200 X207.704 Y148.372 E133.75287
G1 X207.811 Y148.342 E133.75805
G1 X207.902 Y148.207 E133.76563
G1 X207.902 Y123.138 E134.93294
G1 X207.811 Y123.002 E134.94056
G1 X207.704 Y122.972 E134.94574
G1 X182.686 Y122.972 E136.11068
G1 X182.568 Y123.024 E136.11669
G1 X182.504 Y123.127 E136.12233
G1 X182.506 Y148.207 E137.29016
G1 X182.641 Y148.372 E137.30009
G1 F2700 E132.30009
G0 F6000 X182.641 Y118.372
G1 F2700 E137.30009
G1 F1200 X207.704 Y118.372 E138.46713
G1 X207.811 Y118.342 E138.4723
G1 X207.902 Y118.207 E138.47988
G1 X207.902 Y93.138 E139.6472
G1 X207.811 Y93.002 E139.65482
G1 X207.704 Y92.972 E139.66
G1 X182.686 Y92.972 E140.82494
G1 X182.568 Y93.024 E140.83094
G1 X182.504 Y93.127 E140.83659
G1 X182.506 Y118.207 E142.00442
G1 X182.641 Y118.372 E142.01435
G1 F2700 E137.01435
G0 F6000 X182.641 Y88.372
G1 F2700 E142.01435
G1 F1200 X207.704 Y88.372 E143.18138
G1 X207.811 Y88.342 E143.18656
G1 X207.902 Y88.207 E143.19414
G1 X207.902 Y63.138 E144.36146
G1 X207.811 Y63.002 E144.36908
G1 X207.704 Y62.972 E144.37425
G1 X182.686 Y62.972 E145.53919
G1 X182.568 Y63.024 E145.5452
G1 X182.504 Y63.127 E145.55085
G1 X182.506 Y88.207 E146.71868
G1 X182.641 Y88.372 E146.7286
G1 F2700 E141.7286
G0 F6000 X182.641 Y58.372
G1 F2700 E146.7286
G1 F1200 X207.704 Y58.372 E147.89564
G1 X207.811 Y58.342 E147.90081
G1 X207.902 Y58.207 E147.9084
G1 X207.902 Y33.139 E149.07567
G1 X207.789 Y32.973 E149.08502
G1 X182.621 Y32.974 E150.25694
G1 X182.504 Y33.13 E150.26602
G1 X182.506 Y58.207 E151.43372
G1 X182.641 Y58.372 E151.44364
G1 F2700 E146.44364
G0 F6000 X177.787 Y192.723
G0 X177.477 Y192.612
;TYPE:SKIN
G1 F2700 E151.44364
G1 F1200 X177.559 Y192.479 E151.45092
G1 X177.559 Y18.864 E159.53516
G1 X177.479 Y18.732 E159.54235
G1 X217.144 Y18.732 E161.38932
G1 X217.144 Y192.612 E169.4859
G1 X177.477 Y192.612 E171.33296
G1 F2700 E166.33296
G0 F6000 X177.787 Y192.723
G0 X182.252 Y178.5
G1 F2700 E171.33296
G1 F1200 X182.414 Y178.651 E171.34327
G1 X182.614 Y178.726 E171.35322
G1 X207.78 Y178.727 E172.52505
G1 X208.064 Y178.605 E172.53944
G1 X208.253 Y178.284 E172.55679
G1 X208.254 Y153.079 E173.73044
G1 X208.197 Y152.909 E173.73879
G1 X208.006 Y152.692 E173.75225
G1 X207.728 Y152.614 E173.76569
G1 X182.658 Y152.612 E174.93306
G1 X182.318 Y152.747 E174.95009
G1 X182.144 Y153.048 E174.96628
G1 X182.147 Y178.275 E176.14096
G1 X182.252 Y178.5 E176.15252
G1 F2700 E171.15252
G0 F6000 X182.317 Y148.597
G1 F2700 E176.15252
G1 F1200 X182.658 Y148.728 E176.16953
G1 X207.839 Y148.732 E177.34206
G1 X208.116 Y148.542 E177.3577
G1 X208.254 Y148.278 E177.37157
G1 X208.254 Y123.079 E178.54494
G1 X208.197 Y122.909 E178.55329
G1 X208.006 Y122.692 E178.56675
G1 X207.728 Y122.614 E178.5802
G1 X182.658 Y122.612 E179.74756
G1 X182.318 Y122.747 E179.7646
G1 X182.144 Y123.048 E179.78079
G1 X182.144 Y148.291 E180.95621
G1 X182.317 Y148.597 E180.97257
G1 F2700 E175.97257
G0 F6000 X182.317 Y118.597
G1 F2700 E180.97257
G1 F1200 X182.658 Y118.728 E180.98958
G1 X207.839 Y118.732 E182.16212
G1 X208.116 Y118.542 E182.17776
G1 X208.254 Y118.278 E182.19163
G1 X208.254 Y93.079 E183.365
G1 X208.197 Y92.909 E183.37335
G1 X208.006 Y92.692 E183.38681
G1 X207.728 Y92.614 E183.40025
G1 X182.658 Y92.612 E184.56762
G1 X182.318 Y92.747 E184.58465
G1 X182.144 Y93.048 E184.60084
G1 X182.144 Y118.291 E185.77626
G1 X182.317 Y118.597 E185.79263
G1 F2700 E180.79263
G0 F6000 X182.317 Y88.597
G1 F2700 E185.79263
G1 F1200 X182.658 Y88.728 E185.80964
G1 X207.839 Y88.732 E186.98217
G1 X208.116 Y88.542 E186.99781
G1 X208.254 Y88.278 E187.01168
G1 X208.254 Y63.079 E188.18506
G1 X208.197 Y62.909 E188.1934
G1 X208.006 Y62.692 E188.20687
G1 X207.728 Y62.614 E188.22031
G1 X182.658 Y62.612 E189.38767
G1 X182.318 Y62.747 E189.40471
G1 X182.144 Y63.048 E189.4209
G1 X182.144 Y88.291 E190.59632
G1 X182.317 Y88.597 E190.61269
G1 F2700 E185.61269
G0 F6000 X182.317 Y58.597
G1 F2700 E190.61269
G1 F1200 X182.658 Y58.728 E190.6297
G1 X207.836 Y58.732 E191.80209
G1 X208.105 Y58.564 E191.81686
G1 X208.254 Y58.278 E191.83187
G1 X208.254 Y33.074 E193.00548
G1 X208.198 Y32.911 E193.0135
G1 X208.01 Y32.703 E193.02656
G1 X207.778 Y32.616 E193.03809
G1 X182.617 Y32.618 E194.2097
G1 X182.388 Y32.701 E194.22104
G1 X182.144 Y33.028 E194.24004
G1 X182.144 Y58.291 E195.41639
G1 X182.317 Y58.597 E195.43276
G1 F2700 E190.43276
G0 F6000 X216.945 Y19.52
G1 F2700 E195.43276
G1 F1200 X216.356 Y18.932 E195.47151
G0 F6000 X215.791 Y18.932
G1 F1200 X216.945 Y20.086 E195.5475
G0 F6000 X216.945 Y20.652
G1 F1200 X215.225 Y18.932 E195.66077
G0 F6000 X214.659 Y18.932
G1 F1200 X216.945 Y21.217 E195.81127
G0 F6000 X216.945 Y21.783
G1 F1200 X214.094 Y18.932 E195.99901
G0 F6000 X213.528 Y18.932
G1 F1200 X216.945 Y22.349 E196.22403
G0 F6000 X216.945 Y22.915
G1 F1200 X212.962 Y18.932 E196.48632
G0 F6000 X212.396 Y18.932
G1 F1200 X216.945 Y23.48 E196.78584
G0 F6000 X216.945 Y24.046
G1 F1200 X211.831 Y18.932 E197.12261
G0 F6000 X211.265 Y18.932
G1 F1200 X216.945 Y24.612 E197.49665
G0 F6000 X216.945 Y25.177
G1 F1200 X210.699 Y18.932 E197.90792
G0 F6000 X210.134 Y18.932
G1 F1200 X216.945 Y25.743 E198.35644
G0 F6000 X216.945 Y26.309
G1 F1200 X209.568 Y18.932 E198.84223
G0 F6000 X209.002 Y18.932
G1 F1200 X216.945 Y26.874 E199.36526
G0 F6000 X216.945 Y27.44
G1 F1200 X208.437 Y18.932 E199.92552
G0 F6000 X207.871 Y18.932
G1 F1200 X216.945 Y28.006 E200.52306
G0 F6000 X216.945 Y28.571
G1 F1200 X207.305 Y18.932 E201.15784
G0 F6000 X206.74 Y18.932
G1 F1200 X216.945 Y29.137 E201.82985
G0 F6000 X216.945 Y29.703
G1 F1200 X206.174 Y18.932 E202.53914
G0 F6000 X205.608 Y18.932
G1 F1200 X216.945 Y30.268 E203.28567
G0 F6000 X216.945 Y30.834
G1 F1200 X205.043 Y18.932 E204.06944
G0 F6000 X204.477 Y18.932
G1 F1200 X216.945 Y31.4 E204.89048
G0 F6000 X216.945 Y31.965
G1 F1200 X203.911 Y18.932 E205.74876
G0 F6000 X203.346 Y18.932
G1 F1200 X216.945 Y32.531 E206.64427
G0 F6000 X216.945 Y33.097
G1 F1200 X202.78 Y18.932 E207.57706
G0 F6000 X202.214 Y18.932
G1 F1200 X216.945 Y33.663 E208.54712
G0 F6000 X216.945 Y34.228
G1 F1200 X201.648 Y18.932 E209.55442
G0 F6000 X201.083 Y18.932
G1 F1200 X216.945 Y34.794 E210.59896
G0 F6000 X216.945 Y35.36
G1 F1200 X200.517 Y18.932 E211.68078
G0 F6000 X199.951 Y18.932
G1 F1200 X216.945 Y35.925 E212.79983
G0 F6000 X216.945 Y36.491
G1 F1200 X199.386 Y18.932 E213.95612
G0 F6000 X198.82 Y18.932
G1 F1200 X216.945 Y37.057 E215.14968
G0 F6000 X216.945 Y37.622
G1 F1200 X198.254 Y18.932 E216.38048
G0 F6000 X197.689 Y18.932
G1 F1200 X216.945 Y38.188 E217.64852
G0 F6000 X216.945 Y38.754
G1 F1200 X197.123 Y18.932 E218.95383
G0 F6000 X196.557 Y18.932
G1 F1200 X216.945 Y39.319 E220.29639
G0 F6000 X216.945 Y39.885
G1 F1200 X195.992 Y18.932 E221.67618
G0 F6000 X195.426 Y18.932
G1 F1200 X216.945 Y40.451 E223.09324
G0 F6000 X216.945 Y41.016
G1 F1200 X194.86 Y18.932 E224.54754
G0 F6000 X194.295 Y18.932
G1 F1200 X207.776 Y32.414 E225.43532
G0 F6000 X207.211 Y32.414
G1 F1200 X193.729 Y18.932 E226.32313
G0 F6000 X193.163 Y18.932
G1 F1200 X206.645 Y32.414 E227.21095
G0 F6000 X206.079 Y32.414
G1 F1200 X192.598 Y18.932 E228.09873
G0 F6000 X192.032 Y18.932
G1 F1200 X205.514 Y32.414 E228.98654
G0 F6000 X204.949 Y32.414
G1 F1200 X191.466 Y18.932 E229.87438
G0 F6000 X190.9 Y18.932
G1 F1200 X204.383 Y32.414 E230.76223
G0 F6000 X203.817 Y32.414
G1 F1200 X190.335 Y18.932 E231.65004
G0 F6000 X189.769 Y18.932
G1 F1200 X203.251 Y32.414 E232.53786
G0 F6000 X202.686 Y32.414
G1 F1200 X189.203 Y18.932 E233.4257
G0 F6000 X188.638 Y18.932
G1 F1200 X202.121 Y32.415 E234.31358
G0 F6000 X201.555 Y32.415
G1 F1200 X188.072 Y18.932 E235.20146
G0 F6000 X187.506 Y18.932
